X:530
T: BEFIEHL DU MEINE WEGE
N: F1031
O: Europa, Mitteleuropa, Deutschland
R: Erbauungs - Lied, religioes, Choral
M: 4/4
L: 1/8
K: D
F2 | B2A2G2F2 | E4F2
c2 | d2d2cBc2 | B6
F2 | B2A2G2F2 | E4F2
c2 | d2d2cBc2 | B6
d2 | cBA2B2c2 | d4d2
A2 | B2A2GFG2 | F6
d2 | cde2d2c2 | B4c2
F2 | G2F2E2A2 | F6

@@@ Tune index: 5961
